X:19056
T:Xiraldilla (CT 340) (Arrg.)
R:Xiraldilla
C:Tradicional
S:Msica Tradicional Asturiana, (C) Tello & Tito. Asturies, 2001.
S:http://pagina.de/MusTradAst <telloytito@asturies.org>
N:Xiraldilla, transcrita en Cabranes
O:Cabranes
A:Asturies
G:Arrg.
Z:Cancioneru de Torner 340
M:2/4
L:1/8
Q:1/4=160
W:A tu ventana yo me arrim,
W:dieron las doce y me retir.
W:Por verte, nia, por verte fue,
W: por verte, nia resalada, y ol!
W:Ole, con ole, morenita, y ol!
K:G
D/GB
|"D"AA/D/ Ac|"G"B>A GB|"D"AA/G/ FG|"G"Gz/D/ GB|
"D"AA/D/ Ac|"G"B>A GB|"D"AA/G/ F/G/G/G/|"G"Gz/ G/ GB|"D"AA/G/ F/G/G/G/|"G"G ||
